packages/core/src/svgs/tokens/branded/GENI.svg

<svg width="24" height="24" viewBox="0 0 24 24" fill="none" xmlns="http://www.w3.org/2000/svg">
<path fill-rule="evenodd" clip-rule="evenodd" d="M10.8889 11.4281C10.8772 11.3921 10.8698 11.3547 10.8666 11.317C10.8666 11.2947 10.8666 11.2947 10.8833 11.317L10.9388 11.4281C11.4042 12.4072 11.9505 13.3455 12.5721 14.2336C13.161 15.0668 13.7943 15.6502 14.6221 16.4113L14.661 16.4502C15.3802 17.1869 15.8637 18.1209 16.0498 19.1335C16.072 19.2224 16.0998 19.2278 16.1276 19.139C16.4997 18.1224 16.2275 17.2057 15.7609 16.2502C15.4675 15.6529 15.1545 15.0655 14.8221 14.4891C14.5165 13.9502 14.0721 12.6448 14.8499 12.228C14.8684 12.2174 14.8895 12.2117 14.9109 12.2117C14.9324 12.2117 14.9534 12.2174 14.9721 12.228C15.4832 12.517 16.0109 12.7836 16.5554 13.0169C17.189 13.2634 17.8593 13.4023 18.5386 13.4281C18.6331 13.4391 18.6441 13.4114 18.5719 13.3503C18.1525 13.0088 17.7265 12.6754 17.2942 12.3503C16.9731 12.1129 16.7233 11.792 16.5721 11.4225C16.5498 11.3671 16.5721 11.3503 16.6276 11.3725C17.2386 11.6393 19.6885 13.0058 19.183 13.8948C19.1816 13.8972 19.1808 13.9001 19.1808 13.9031C19.1808 13.9059 19.1816 13.9089 19.183 13.9114L19.1941 13.9169H19.2053C19.5671 13.8499 19.909 13.7017 20.2052 13.4836C21.4385 12.567 19.522 10.7837 18.833 10.217C18.829 10.2138 18.8256 10.2098 18.8232 10.2052C18.8206 10.2007 18.819 10.1956 18.8185 10.1904C18.818 10.1853 18.8185 10.1801 18.82 10.175C18.8216 10.1701 18.8242 10.1654 18.8276 10.1615C19.383 9.50045 19.0497 8.60597 18.5942 7.98376C17.9242 7.05925 17.0595 6.29308 16.061 5.73938C16.0455 5.73118 16.0323 5.71928 16.0226 5.70473C16.013 5.69019 16.007 5.67346 16.0054 5.65606C15.7998 3.76722 13.6998 2.35615 11.9499 2.00616C11.8721 1.9895 11.8611 2.00616 11.9221 2.06172C12.261 2.36607 12.5564 2.71564 12.8 3.10058C12.8333 3.15614 12.8166 3.17835 12.7555 3.17835H12.5055C11.0277 2.98392 9.56114 3.03391 8.10561 3.3228C8.03894 3.33947 8.03338 3.36168 8.10005 3.38946L9.53884 4.07277L9.54999 4.08388C9.55414 4.08776 9.55725 4.09263 9.55894 4.09804C9.56075 4.10343 9.56101 4.10918 9.55997 4.11475C9.55881 4.12032 9.55634 4.1255 9.55258 4.12982C9.54895 4.13414 9.54416 4.13746 9.53884 4.13944L5.9779 5.78383C5.9279 5.8005 5.93345 5.82272 5.9779 5.83383C6.73745 6.02526 7.50259 6.19385 8.27227 6.33937C8.3056 6.35048 8.3056 6.35604 8.27227 6.36715L7.55007 6.61158C6.11123 7.11156 5.01125 8.26709 4.14461 9.44484C3.47797 10.3614 3.07799 11.117 3.70019 12.228C3.72241 12.2615 3.73908 12.2615 3.75573 12.228C4.00595 11.7904 4.25409 11.3515 4.50016 10.9114C4.51127 10.917 4.51127 10.9226 4.51127 10.9281L4.17795 11.8447C3.84462 12.7559 4.13906 13.4836 4.92237 14.028H4.93347C4.93736 14.0288 4.94136 14.0287 4.94519 14.0276C4.94902 14.0267 4.95261 14.0249 4.95571 14.0224V14.0058C5.08348 12.2948 5.77235 10.7281 7.20008 9.67817C7.25563 9.63928 7.25563 9.64485 7.21674 9.70033C6.38344 10.7726 5.51679 12.0836 5.32791 13.4391C5.07792 15.3113 6.35566 17.078 7.49452 18.4612C7.51119 18.4779 7.52784 18.4779 7.53895 18.4612C8.13953 17.3372 8.46151 16.0856 8.47782 14.8113L8.48338 13.7502C8.48338 12.9725 8.48893 12.1947 8.53892 11.417C8.57169 10.8817 8.65918 10.3512 8.80003 9.83372C8.80003 9.94481 8.78336 10.0559 8.7667 10.156C8.7667 10.2059 8.75559 10.2448 8.75003 10.2836C8.6167 11.6281 8.71671 12.7725 8.82781 14.0169L8.85003 14.2502C8.8778 14.5724 8.89447 14.8614 8.89447 15.1113C8.91114 15.8613 8.81114 16.4002 8.63893 17.0501C8.62991 17.0834 8.62873 17.1182 8.63548 17.152C8.64222 17.1857 8.65671 17.2175 8.67782 17.2445C9.48336 18.4057 10.0667 19.7168 10.6333 21.0222L10.9777 21.8C11 21.8389 11.0166 21.8333 11.0333 21.7944C11.4989 20.5615 11.6922 19.2426 11.5999 17.9279C11.5688 17.3044 11.4548 16.6879 11.2611 16.0946C11.1166 15.6836 10.9388 15.2335 10.7166 14.7503C10.1222 13.4447 9.62777 11.8226 9.80561 10.3726L9.81663 10.3614C9.82778 10.3614 9.82778 10.3614 9.82778 10.3726C9.88339 11.5669 10.161 12.717 10.6444 13.817L11 14.6113C11.4333 15.5558 11.7889 16.3335 11.9833 17.3002C12.0055 17.4335 12.05 17.7835 12.1054 18.3557C12.1443 18.7446 12.2167 19.1335 12.3054 19.5223C12.3666 19.8001 12.461 19.9334 12.661 20.1168C13.3673 20.7625 14.0897 21.3905 14.8276 22C14.8311 21.9996 14.8344 21.9983 14.8373 21.9965C14.8401 21.9946 14.8426 21.992 14.8443 21.9889L14.8999 21.8722C15.1831 21.2334 15.422 20.7111 15.4388 19.9334C15.4682 19.2589 15.3434 18.5866 15.0739 17.9676C14.8042 17.3485 14.3971 16.7992 13.8832 16.3613C12.4388 15.078 11.4555 13.2225 10.8833 11.4281H10.8889ZM16.9775 9.3226C16.9302 9.21475 16.8745 9.11066 16.8108 9.0115C16.5258 8.58862 16.1794 8.21043 15.7832 7.88932C15.7609 7.87266 15.7554 7.87821 15.7499 7.90599C15.7499 8.25043 15.7276 8.59486 15.6942 8.94487C15.622 9.58924 16.122 9.91707 16.6998 10.0004C16.9442 10.0393 17.1997 9.99484 17.4498 9.94481L17.6165 9.91149C17.7387 9.89477 17.7387 9.8726 17.6165 9.85588C17.1997 9.78368 17.0998 9.57822 16.9775 9.3226Z" fill="url(#paint0_linear_364_6894)"/>
<path d="M12.5171 2.14502C14.1281 2.645 15.817 3.94496 16.017 5.6838C15.8391 5.64491 15.4558 5.54491 15.4059 5.35047C15.2374 4.71444 14.9018 4.13511 14.4337 3.67275C14.0957 3.30871 13.7174 2.9844 13.306 2.7061C12.9504 2.47834 12.6892 2.28946 12.5171 2.14502Z" fill="#FA9948"/>
<path d="M11.8332 3.07274C11.8611 3.09496 11.9221 3.11163 12.0222 3.11719C11.8707 3.19722 11.7041 3.24455 11.5332 3.25607C10.711 3.32274 9.9111 3.47829 9.27775 3.57828C9.1445 3.6005 8.98889 3.64495 8.8 3.70606L8.07781 3.36163C8.05003 3.35052 8.05003 3.33941 8.08335 3.32829C8.76111 3.1783 9.37782 3.09496 9.93884 3.07274C10.361 3.05607 10.9944 3.05607 11.8332 3.07274Z" fill="#F37F4F"/>
<path d="M7.25514 9.63378C5.77186 10.7338 5.12188 12.2171 4.96077 14.0059V14.0169C4.95706 14.0203 4.95254 14.0227 4.94765 14.0236C4.94276 14.0246 4.93769 14.0242 4.93299 14.0225H4.92188C4.2219 13.5004 3.85525 12.8449 4.12191 11.9726C4.12191 12.0282 4.13858 12.0671 4.17746 12.0893C4.19412 12.1004 4.20524 12.117 4.21635 12.1393C4.28857 12.4004 4.583 12.6726 4.80522 12.8393C4.8156 12.8494 4.82956 12.8551 4.8441 12.8551C4.85865 12.8551 4.87261 12.8494 4.88299 12.8393C4.89118 12.8319 4.89699 12.8222 4.89966 12.8114C4.93299 12.6948 4.93299 12.5615 4.95522 12.456C5.09818 11.8124 5.38287 11.2089 5.78852 10.6893C6.19963 10.1616 6.66628 9.71156 7.18293 9.32826C7.44825 9.13861 7.70585 8.93847 7.95512 8.72827L7.97179 8.73938V8.76716L7.24959 9.63378H7.25514Z" fill="#EE6757"/>
<path d="M12.6108 13.6281C13.3664 14.6559 14.1385 15.367 14.944 16.2114C15.1552 16.4335 15.3163 16.6224 15.4163 16.778C15.7274 17.2446 15.9162 17.7613 16.0829 18.2891C16.1162 18.3779 16.1107 18.4557 16.1107 18.5502C16.1107 18.5724 16.0996 18.5891 16.0885 18.6057C16.0706 18.6272 16.0471 18.6433 16.0206 18.6521C15.9941 18.6609 15.9656 18.6622 15.9385 18.6557C15.6829 17.8558 15.3107 17.0336 14.7163 16.4892C13.8941 15.7336 13.2275 15.1337 12.6275 14.2837C11.9921 13.3923 11.4309 12.4503 10.9497 11.4671C10.922 11.4115 10.8997 11.3504 10.8831 11.2838C10.8831 11.2782 10.8775 11.2726 10.8664 11.2782C10.7276 11.3282 10.722 11.3337 10.8554 11.2893L10.522 9.90598L10.5275 9.90041L10.5497 9.89484C10.5609 9.89484 10.572 9.89484 10.5776 9.91156C11.0775 11.2449 11.7442 12.4837 12.6053 13.6336L12.6108 13.6281Z" fill="#F78F50"/>
<path d="M3.4278 10.7225L3.77222 11.5336C3.78333 11.5559 3.8 11.5669 3.82778 11.5559C3.97777 11.5059 4.02777 11.2504 4.19999 11.1614C4.26665 11.1281 4.33332 11.0948 4.4111 11.067L3.75555 12.2336C3.75365 12.2381 3.75058 12.242 3.74667 12.2449C3.74277 12.2478 3.73817 12.2497 3.73334 12.2503C3.72902 12.2503 3.72477 12.2493 3.72092 12.2473C3.71706 12.2454 3.7137 12.2427 3.71112 12.2392C3.554 11.9529 3.45045 11.6404 3.40556 11.317C3.37779 11.1503 3.38891 10.9503 3.4278 10.7225Z" fill="#EE6757"/>
<path d="M17.2561 13.2391C16.4558 13.0058 15.6913 12.6637 14.9839 12.2226C14.9651 12.2127 14.9441 12.2076 14.9228 12.2076C14.9016 12.2076 14.8806 12.2127 14.8618 12.2226C14.7126 12.2957 14.5888 12.4118 14.5062 12.5558C14.3784 12.3336 14.4395 12.0892 14.6784 11.8058C15.084 11.3392 15.5229 11.4281 15.9006 11.8503L16.6228 12.6613C16.6784 12.7281 16.8451 12.8448 17.1117 13.0169C17.145 13.0392 17.1672 13.0669 17.1839 13.1058C17.1839 13.117 17.1839 13.1224 17.1728 13.1224H17.1506L17.1394 13.1336C17.1394 13.1559 17.1394 13.1669 17.1506 13.1725L17.1783 13.1836C17.2284 13.1836 17.2505 13.2002 17.2561 13.2391Z" fill="#FA9948"/>
<path d="M5.31715 13.6669L5.33936 13.7781C5.33936 13.8003 5.35047 13.817 5.36158 13.8336C5.41714 13.9169 5.42825 14.0114 5.45603 14.0836C5.67825 14.6446 5.85601 15.0836 6.24489 15.6836C6.59488 16.2225 7.00599 16.7669 7.41152 17.3057C7.41669 17.3126 7.42341 17.3182 7.43112 17.3221C7.43884 17.326 7.44735 17.3279 7.45597 17.3279C7.46453 17.3275 7.4729 17.3253 7.48055 17.3216C7.48821 17.3177 7.49498 17.3123 7.50041 17.3057C7.54486 17.2613 7.57818 17.2057 7.61152 17.139C7.91152 16.4446 8.12261 15.8224 8.2504 15.2724C8.30594 15.0225 8.38928 14.8391 8.49483 14.7114C8.48506 16.0266 8.14911 17.3188 7.51708 18.4724C6.406 17.1279 5.18381 15.4669 5.31715 13.6614V13.6669Z" fill="#F26E53"/>
<path d="M8.78388 16.5056C9.00609 16.8502 9.36722 17.4724 9.86718 18.3834C10.2631 19.1018 10.6102 19.8461 10.906 20.6111C10.9505 20.7222 10.9838 20.7222 11.0171 20.6111C11.2283 19.9223 11.3505 19.2 11.506 18.5C11.5116 18.4779 11.5226 18.4556 11.5394 18.4446C11.6339 18.3722 11.5838 18.2556 11.606 18.1723C11.6606 19.3972 11.4717 20.6207 11.0505 21.7722C11.0282 21.8388 11.0061 21.8388 10.9782 21.7722C10.2782 20.2167 9.65602 18.65 8.65056 17.189C8.62278 17.1445 8.61722 17.0779 8.63389 16.9946C8.66721 16.8612 8.71721 16.6946 8.78388 16.5056Z" fill="#F37F4F"/>
<path d="M12.1221 18.4391C12.2276 18.4836 12.3109 18.5614 12.3776 18.678C12.4443 18.8002 12.4998 18.8779 12.5443 18.9224C13.2571 19.5591 13.9793 20.1851 14.7108 20.8002C14.7287 20.8042 14.7474 20.8026 14.7642 20.7956C14.7811 20.7886 14.7955 20.7767 14.8053 20.7613C15.0331 20.3724 15.172 19.9558 15.2941 19.528C15.3053 19.5001 15.322 19.4891 15.3498 19.5001C15.3942 19.5113 15.422 19.4947 15.4442 19.4447C15.4997 20.1335 15.3886 20.7834 15.1108 21.4056L14.8498 21.9779C14.8458 21.9835 14.8398 21.9875 14.8331 21.9889C14.8296 21.9905 14.8258 21.9913 14.822 21.9913C14.8182 21.9913 14.8144 21.9905 14.8109 21.9889C14.1136 21.4089 13.4301 20.8125 12.761 20.2001C12.4998 19.9613 12.3776 19.8335 12.2943 19.478C12.2166 19.1447 12.161 18.7947 12.1221 18.4391Z" fill="#FA9149"/>
<path d="M10.3553 6.04492C8.71647 5.63382 6.0221 5.80603 5.98877 5.8227L8.30536 6.33935L10.3553 6.04492Z" fill="#F37F4F"/>
<defs>
<linearGradient id="paint0_linear_364_6894" x1="19.2942" y1="12.0003" x2="5.69457" y2="12.0003" gradientUnits="userSpaceOnUse">
<stop stop-color="#FECB40"/>
<stop offset="0.62" stop-color="#F9A555"/>
<stop offset="1" stop-color="#F68E62"/>
</linearGradient>
</defs>
</svg>

<svg xmlns="http://www.w3.org/2000/svg" width="24" height="24" fill="none" viewBox="0 0 24 24">
    <path fill="url(#GENI__a)" fill-rule="evenodd" d="M10.889 11.428a.5.5 0 0 1-.022-.111c0-.022 0-.022.016 0l.056.111q.699 1.471 1.633 2.806c.589.833 1.222 1.416 2.05 2.177l.039.04a5.2 5.2 0 0 1 1.389 2.683c.022.088.05.094.078.005.372-1.017.1-1.933-.367-2.889a30 30 0 0 0-.939-1.76c-.305-.54-.75-1.845.028-2.262a.12.12 0 0 1 .122 0c.511.289 1.039.556 1.583.789a6.1 6.1 0 0 0 1.984.411q.141.015.033-.078a42 42 0 0 0-1.278-1 2.2 2.2 0 0 1-.722-.928c-.022-.055 0-.072.056-.05.61.267 3.06 1.634 2.555 2.523a.02.02 0 0 0 0 .016l.011.006h.011a2.4 2.4 0 0 0 1-.433c1.234-.917-.683-2.7-1.372-3.267l-.01-.012-.005-.015q0-.008.002-.015l.008-.014c.555-.66.222-1.555-.234-2.177a7.8 7.8 0 0 0-2.533-2.245.1.1 0 0 1-.056-.083c-.205-1.889-2.305-3.3-4.055-3.65-.078-.016-.089 0-.028.056.339.304.634.654.878 1.039.033.055.017.077-.045.077h-.25a13.4 13.4 0 0 0-4.4.145c-.066.016-.072.039-.005.066l1.439.684.011.01a.033.033 0 0 1-.011.056L5.978 5.784c-.05.017-.045.039 0 .05q1.14.287 2.294.505c.034.011.034.017 0 .028l-.722.245c-1.439.5-2.539 1.655-3.405 2.833-.667.916-1.067 1.672-.445 2.783q.032.051.056 0 .375-.656.744-1.317c.011.006.011.012.011.017l-.333.917c-.333.91-.039 1.639.744 2.183h.023l.01-.006v-.016c.128-1.711.817-3.278 2.245-4.328.056-.039.056-.033.017.022-.834 1.073-1.7 2.384-1.89 3.74-.25 1.871 1.029 3.638 2.168 5.021q.026.025.044 0a7.96 7.96 0 0 0 .939-3.65l.005-1.06c0-.778.006-1.556.056-2.334.033-.535.12-1.066.261-1.583 0 .11-.017.222-.033.322 0 .05-.011.089-.017.128-.133 1.344-.033 2.489.078 3.733l.022.233q.043.485.044.861c.017.75-.083 1.29-.255 1.94a.22.22 0 0 0 .039.194c.805 1.16 1.389 2.472 1.955 3.777l.345.778c.022.039.039.033.055-.006a9.1 9.1 0 0 0 .567-3.866 7 7 0 0 0-.339-1.833 16 16 0 0 0-.544-1.345c-.595-1.305-1.09-2.927-.911-4.377l.01-.012c.012 0 .012 0 .012.012a9.6 9.6 0 0 0 .816 3.444l.356.794c.433.945.789 1.723.983 2.69.022.133.067.483.122 1.055.04.389.112.777.2 1.166.062.278.156.411.356.595A57 57 0 0 0 14.828 22l.01-.003.006-.008.056-.117c.283-.639.522-1.16.539-1.939a4.44 4.44 0 0 0-1.556-3.572c-1.444-1.283-2.427-3.139-3-4.933zm6.089-2.105a2 2 0 0 0-.167-.312 5.2 5.2 0 0 0-1.028-1.122c-.022-.016-.028-.01-.033.017 0 .344-.022.689-.056 1.039-.072.644.428.972 1.006 1.055.244.04.5-.005.75-.055l.166-.034c.123-.016.123-.038 0-.055-.416-.072-.516-.278-.639-.533" clip-rule="evenodd"/>
    <path fill="#FA9948" d="M12.517 2.145c1.611.5 3.3 1.8 3.5 3.539-.178-.04-.561-.14-.611-.334a3.7 3.7 0 0 0-.972-1.677 6.5 6.5 0 0 0-1.128-.967 8 8 0 0 1-.789-.561"/>
    <path fill="#F37F4F" d="M11.833 3.073q.041.035.19.044a1.2 1.2 0 0 1-.49.14c-.822.066-1.622.221-2.255.321a3.5 3.5 0 0 0-.478.128l-.722-.344q-.043-.017.005-.034a10.6 10.6 0 0 1 1.856-.255 35 35 0 0 1 1.894 0"/>
    <path fill="#EE6757" d="M7.255 9.634c-1.483 1.1-2.133 2.583-2.294 4.372v.01a.03.03 0 0 1-.028.006h-.011c-.7-.522-1.067-1.177-.8-2.05q-.001.084.055.117a.1.1 0 0 1 .04.05c.072.261.366.534.588.7a.056.056 0 0 0 .078 0 .1.1 0 0 0 .017-.028c.033-.116.033-.25.055-.355a4.4 4.4 0 0 1 .834-1.767 7.2 7.2 0 0 1 1.394-1.36q.398-.285.772-.6l.017.01v.028l-.722.867z"/>
    <path fill="#F78F50" d="M12.61 13.628c.756 1.028 1.529 1.739 2.334 2.583.211.223.372.411.472.567.311.467.5.983.667 1.511.033.089.028.167.028.261 0 .022-.011.04-.023.056a.15.15 0 0 1-.15.05c-.255-.8-.627-1.622-1.222-2.167-.822-.755-1.489-1.355-2.088-2.205a20 20 0 0 1-1.678-2.817 1 1 0 0 1-.067-.183c0-.006-.005-.011-.017-.006q-.209.077-.01.011l-.334-1.383.005-.006.023-.005c.01 0 .022 0 .028.017a14.9 14.9 0 0 0 2.027 3.722z"/>
    <path fill="#EE6757" d="m3.428 10.723.344.81c.011.023.028.034.056.023.15-.05.2-.306.372-.395.067-.033.133-.066.211-.094l-.655 1.167-.01.01-.013.006-.012-.003-.01-.008a2.7 2.7 0 0 1-.305-.922 1.8 1.8 0 0 1 .022-.594"/>
    <path fill="#FA9948" d="M17.256 13.24a9 9 0 0 1-2.272-1.017.13.13 0 0 0-.122 0 .83.83 0 0 0-.356.333c-.128-.222-.066-.467.172-.75.406-.467.845-.378 1.223.044l.722.811c.055.067.222.184.489.356q.048.032.072.089c0 .011 0 .016-.011.016h-.022l-.012.012c0 .022 0 .033.012.038l.027.012c.05 0 .072.016.078.055"/>
    <path fill="#F26E53" d="m5.317 13.667.022.111c0 .022.011.039.023.056.055.083.066.177.094.25.222.56.4 1 .789 1.6.35.539.761 1.083 1.167 1.622a.06.06 0 0 0 .044.022l.025-.006.02-.016a.6.6 0 0 0 .11-.167q.449-1.042.64-1.867c.055-.25.138-.433.244-.56a7.95 7.95 0 0 1-.978 3.76c-1.111-1.344-2.333-3.005-2.2-4.81z"/>
    <path fill="#F37F4F" d="M8.784 16.506c.222.344.583.966 1.083 1.877q.595 1.08 1.039 2.228c.044.111.078.111.111 0 .211-.689.334-1.411.489-2.111.006-.022.017-.044.033-.055.095-.073.045-.19.067-.273a9.3 9.3 0 0 1-.556 3.6q-.032.1-.072 0c-.7-1.555-1.322-3.122-2.327-4.583q-.042-.068-.017-.194.05-.203.15-.49"/>
    <path fill="#FA9149" d="M12.122 18.44a.53.53 0 0 1 .256.238c.066.122.122.2.166.244a96 96 0 0 0 2.167 1.878.09.09 0 0 0 .094-.039c.228-.389.367-.805.49-1.233q.014-.043.055-.028c.044.011.072-.005.094-.055a3.95 3.95 0 0 1-.333 1.96l-.261.573a.03.03 0 0 1-.017.01.03.03 0 0 1-.022 0 58 58 0 0 1-2.05-1.788c-.261-.239-.383-.366-.467-.722a9 9 0 0 1-.172-1.039"/>
    <path fill="#F37F4F" d="M10.355 6.045c-1.639-.411-4.333-.239-4.366-.222l2.316.516z"/>
    <defs>
        <linearGradient id="GENI__a" x1="19.294" x2="5.695" y1="12" y2="12" gradientUnits="userSpaceOnUse">
            <stop stop-color="#FECB40"/>
            <stop offset=".62" stop-color="#F9A555"/>
            <stop offset="1" stop-color="#F68E62"/>
        </linearGradient>
    </defs>
</svg>
